exported-svg/server.svg

<svg height="24" viewBox="0 0 24 24" width="24" xmlns="http://www.w3.org/2000/svg"><path d="m4.5 2h16c1.3807119 0 2.5 1.11928813 2.5 2.5v4c0 1.38071187-1.1192881 2.5-2.5 2.5h-16c-1.38071187 0-2.5-1.11928813-2.5-2.5v-4c0-1.38071187 1.11928813-2.5 2.5-2.5zm0 1c-.82842712 0-1.5.67157288-1.5 1.5v4c0 .82842712.67157288 1.5 1.5 1.5h16c.8284271 0 1.5-.67157288 1.5-1.5v-4c0-.82842712-.6715729-1.5-1.5-1.5zm0 11h16c1.3807119 0 2.5 1.1192881 2.5 2.5v4c0 1.3807119-1.1192881 2.5-2.5 2.5h-16c-1.38071187 0-2.5-1.1192881-2.5-2.5v-4c0-1.3807119 1.11928813-2.5 2.5-2.5zm0 1c-.82842712 0-1.5.6715729-1.5 1.5v4c0 .8284271.67157288 1.5 1.5 1.5h16c.8284271 0 1.5-.6715729 1.5-1.5v-4c0-.8284271-.6715729-1.5-1.5-1.5z"/></svg>

<?xml version="1.0" encoding="UTF-8"?>
<svg width="24px" height="24px" viewBox="0 0 24 24" version="1.1" xmlns="http://www.w3.org/2000/svg" xmlns:xlink="http://www.w3.org/1999/xlink">
    <!-- Generator: Sketch 55.2 (78181) - https://sketchapp.com -->
    <title>server</title>
    <desc>Created with Sketch.</desc>
    <g id="server" stroke="none" stroke-width="1" fill="none" fill-rule="evenodd">
        <path d="M4.5,2 L20.5,2 C21.8807119,2 23,3.11928813 23,4.5 L23,8.5 C23,9.88071187 21.8807119,11 20.5,11 L4.5,11 C3.11928813,11 2,9.88071187 2,8.5 L2,4.5 C2,3.11928813 3.11928813,2 4.5,2 Z M4.5,3 C3.67157288,3 3,3.67157288 3,4.5 L3,8.5 C3,9.32842712 3.67157288,10 4.5,10 L20.5,10 C21.3284271,10 22,9.32842712 22,8.5 L22,4.5 C22,3.67157288 21.3284271,3 20.5,3 L4.5,3 Z" id="Rectangle-path" fill="#000000" fill-rule="nonzero"></path>
        <path d="M4.5,14 L20.5,14 C21.8807119,14 23,15.1192881 23,16.5 L23,20.5 C23,21.8807119 21.8807119,23 20.5,23 L4.5,23 C3.11928813,23 2,21.8807119 2,20.5 L2,16.5 C2,15.1192881 3.11928813,14 4.5,14 Z M4.5,15 C3.67157288,15 3,15.6715729 3,16.5 L3,20.5 C3,21.3284271 3.67157288,22 4.5,22 L20.5,22 C21.3284271,22 22,21.3284271 22,20.5 L22,16.5 C22,15.6715729 21.3284271,15 20.5,15 L4.5,15 Z" id="Rectangle-path" fill="#000000" fill-rule="nonzero"></path>
    </g>
</svg>
